2b0
albertroad.htmlalbertroad.htmlalbertroad.htmlalbertroad.htmlalbertroad.htmlalbertroad.htmlalbertroad.htmlalbertroad.htmlalbertroad.htmlFrom <I>Dervish: Midsummer's Night</I>
albertroad.htmlalbertroad.html

T:Steampacket, The
M:4/4
L:1/8
R:reel
D:Dervish: Midsummer's Night
Z:Devin McCabe
K:G
A~G3 AGFD|A~G3 Addc|A~G3 AGFD|=FEFG A~c3:|
!d~g3 aggf|dgge fdcA|d~g3 aggf|d^cde fdcA|
!d~g3 ag e/2f/2g|~a3g~f3g|a/2g/2f ge fde^c|dg e/2f/2g fdcA||

%  ABC2Win Version 2.1 8/2/2000



albertroad.htmlalbertroad.htmlalbertroad.htmlalbertroad.htmlalbertroad.htmlalbertroad.html
0

